static/images/swapzone-logo.svg

<svg height="99" viewBox="0 0 100 99" width="100" xmlns="http://www.w3.org/2000/svg"><g fill="#25b7eb"><path d="m99.0525771 24.4203574c0-13.4465164-11.0569801-24.4203574-24.6058017-24.4203574-7.008029 0-13.3931623 2.93654494-17.7536907 7.57342657l-55.5969956 34.77596473c-1.09013209.6182337-1.40145041 2.1639472-.77855478 3.2457913.46723647.7728568 1.24579124 1.0818441 2.02460502 1.0818441.46697747 0 .77855478-.1546232 1.24579125-.3089873l47.49883451-29.8300959c-.9344729 2.4729345-1.4017094 5.1004921-1.4017094 8.0370371 0 6.1823362 2.3359233 11.7466977 6.0735561 16.074333l-37.3760684 36.939653c-.934473.9274799-.934473 2.3185703 0 3.2457912.4672364.4636105 1.0901321.6182337 1.7130277.6182337.6231546 0 1.2460502-.1546232 1.7132867-.6182337l37.3760684-36.9396529c4.2046102 3.2455322 9.4996115 5.2548562 15.1061901 5.2548562 3.2703963 0 6.3848744-.6182336 9.1882932-1.7000777l-29.7451438 47.913494c-.6231546 1.081844-.3115773 2.4729344.7785548 3.2457912.3115773.3089873.7785548.3089873 1.2457913.3089873.7788137 0 1.5573685-.4636104 2.024605-1.0818441l35.8186998-57.9598549c3.4263144-4.3276354 5.4506605-9.5827506 5.4506605-15.4560995zm-36.4415955 16.0743331 10.9013209-10.6645947c.9344729-.9274799.9344729-2.3185703 0-3.2457912-.9344729-.9274799-2.3359233-.9274799-3.2703963 0l-11.05698 10.8192178c-2.959078-3.4004144-4.8277648-7.8826729-4.8277648-12.8285418.1556591-10.973841 9.032375-19.93809896 20.089614-19.93809896 11.0569801 0 19.933955 8.96425796 19.933955 19.78347576 0 10.973841-9.0326341 19.7837348-19.933955 19.7837348-4.3605283.1546232-8.5653975-1.3910904-11.8357938-3.7094017z"/><path d="m74.4467754 8.34628335c-9.032375 0-16.3519813 7.26418025-16.3519813 16.22869725 0 1.2364672 1.0901321 2.3183113 2.3361823 2.3183113 1.2457913 0 2.3359234-1.0818441 2.3359234-2.3183113 0-6.3369594 5.1390831-11.5920746 11.6798756-11.5920746 1.2460503 0 2.3361824-1.0818441 2.3361824-2.3183113 0-1.23646727-1.0901321-2.31831135-2.3361824-2.31831135z"/></g></svg>

<?xml version="1.0" encoding="UTF-8"?>
<svg width="100px" height="99px" viewBox="0 0 100 99" version="1.1" xmlns="http://www.w3.org/2000/svg" xmlns:xlink="http://www.w3.org/1999/xlink">
    <!-- Generator: Sketch 63.1 (92452) - https://sketch.com -->
    <title>swapzone-logo</title>
    <desc>Created with Sketch.</desc>
    <g id="Page-1" stroke="none" stroke-width="1" fill="none" fill-rule="evenodd">
        <g id="swapzone-logo" fill="#25B7EB" fill-rule="nonzero">
            <g id="3z_rd_f">
                <path d="M99.0525771,24.4203574 C99.0525771,10.973841 87.995597,0 74.4467754,0 C67.4387464,0 61.0536131,2.93654494 56.6930847,7.57342657 L1.0960891,42.3493913 C0.00595700596,42.967625 -0.305361305,44.5133385 0.317534318,45.5951826 C0.784770785,46.3680394 1.56332556,46.6770267 2.34213934,46.6770267 C2.80911681,46.6770267 3.12069412,46.5224035 3.58793059,46.3680394 L51.0867651,16.5379435 C50.1522922,19.010878 49.6850557,21.6384356 49.6850557,24.5749806 C49.6850557,30.7573168 52.020979,36.3216783 55.7586118,40.6493136 L18.3825434,77.5889666 C17.4480704,78.5164465 17.4480704,79.9075369 18.3825434,80.8347578 C18.8497798,81.2983683 19.4726755,81.4529915 20.0955711,81.4529915 C20.7187257,81.4529915 21.3416213,81.2983683 21.8088578,80.8347578 L59.1849262,43.8951049 C63.3895364,47.1406371 68.6845377,49.1499611 74.2911163,49.1499611 C77.5615126,49.1499611 80.6759907,48.5317275 83.4794095,47.4498834 L53.7342657,95.3633774 C53.1111111,96.4452214 53.4226884,97.8363118 54.5128205,98.6091686 C54.8243978,98.9181559 55.2913753,98.9181559 55.7586118,98.9181559 C56.5374255,98.9181559 57.3159803,98.4545455 57.7832168,97.8363118 L93.6019166,39.8764569 C97.028231,35.5488215 99.0525771,30.2937063 99.0525771,24.4203574 Z M62.6109816,40.4946905 L73.5123025,29.8300958 C74.4467754,28.9026159 74.4467754,27.5115255 73.5123025,26.5843046 C72.5778296,25.6568247 71.1763792,25.6568247 70.2419062,26.5843046 L59.1849262,37.4035224 C56.2258482,34.003108 54.3571614,29.5208495 54.3571614,24.5749806 C54.5128205,13.6011396 63.3895364,4.63688164 74.4467754,4.63688164 C85.5037555,4.63688164 94.3807304,13.6011396 94.3807304,24.4203574 C94.3807304,35.3941984 85.3480963,44.2040922 74.4467754,44.2040922 C70.0862471,44.3587154 65.8813779,42.8130018 62.6109816,40.4946905 Z" id="Shape"></path>
                <path d="M74.4467754,8.34628335 C65.4144004,8.34628335 58.0947941,15.6104636 58.0947941,24.5749806 C58.0947941,25.8114478 59.1849262,26.8932919 60.4309764,26.8932919 C61.6767677,26.8932919 62.7668998,25.8114478 62.7668998,24.5749806 C62.7668998,18.2380212 67.9059829,12.982906 74.4467754,12.982906 C75.6928257,12.982906 76.7829578,11.9010619 76.7829578,10.6645947 C76.7829578,9.42812743 75.6928257,8.34628335 74.4467754,8.34628335 Z" id="Path"></path>
            </g>
        </g>
    </g>
</svg>
